X: 1
T: Cold Frosty Morning - Am
M: 4/4
L: 1/8
R: reel
K: Ador
|:"Am"EDEG A2A2|ABcd e2(3DEF|"G"GFGA GEED|GABc d2>D|
|:"Am"edeg a2a2|abag e2>f2|"G"gfga gfef|gagf edcB|

